flutter/assets/link2.svg

<svg width="14" height="14" version="1.1" viewBox="0 0 3.7042 3.7042" xml:space="preserve" xmlns="http://www.w3.org/2000/svg"><g transform="translate(-63.722 -141.62)"><g transform="matrix(.26458 0 0 .26458 63.722 141.62)" clip-rule="evenodd" fill="#00c5ff" fill-rule="evenodd"><path d="m2 2h1.75c0.55228 0 1-0.44772 1-1 0-0.55228-0.44772-1-1-1h-2.25c-0.82843 0-1.5 0.67157-1.5 1.5v11c0 0.8284 0.67157 1.5 1.5 1.5h11c0.8284 0 1.5-0.6716 1.5-1.5v-2.25c0-0.55229-0.4477-1-1-1s-1 0.44771-1 1v1.75h-10z"/><path d="m6.6667 1c0-0.55228 0.44771-1 1-1h5.3333c0.5523 0 1 0.44772 1 1v5.3333c0 0.55229-0.4477 1-1 1s-1-0.44771-1-1v-2.9191l-6.2929 6.2929c-0.39053 0.39049-1.0237 0.39049-1.4142 0-0.39052-0.39053-0.39052-1.0237 0-1.4142l6.2929-6.2929h-2.9191c-0.55229 0-1-0.44772-1-1z"/></g></g></svg>

<svg width="14" height="14" viewBox="0 0 14 14" fill="none" xmlns="http://www.w3.org/2000/svg">
<path fill-rule="evenodd" clip-rule="evenodd" d="M2 2H3.75C4.30228 2 4.75 1.55228 4.75 1C4.75 0.447715 4.30228 0 3.75 0H1.5C0.671572 0 0 0.671574 0 1.5V12.5C0 13.3284 0.671573 14 1.5 14H12.5C13.3284 14 14 13.3284 14 12.5V10.25C14 9.69771 13.5523 9.25 13 9.25C12.4477 9.25 12 9.69771 12 10.25V12H2V2Z" fill="#00C5FF"/>
<path fill-rule="evenodd" clip-rule="evenodd" d="M6.66667 1C6.66667 0.447715 7.11438 0 7.66667 0H13C13.5523 0 14 0.447715 14 1V6.33333C14 6.88562 13.5523 7.33333 13 7.33333C12.4477 7.33333 12 6.88562 12 6.33333V3.41421L5.70711 9.70711C5.31658 10.0976 4.68342 10.0976 4.29289 9.70711C3.90237 9.31658 3.90237 8.68342 4.29289 8.29289L10.5858 2H7.66667C7.11438 2 6.66667 1.55228 6.66667 1Z" fill="#00C5FF"/>
</svg>
